X:0850
T:Donald of Dundee.
M:2/4
L:1/8
Q:1/4=144 "Vivace"
I: ||
Z:Jack Campin * www.campin.me.uk * 2009
K:D
(d/e/)|fd`dB |AF````````FD |F/G/A/B/ Ad      |e3 (d/e/)|fd`dB|AFFD|Ade>f|d3
(d/e/)|ff`f>g|ee````````e>f|dd```````d>e     |c^AFF    |B>cde|fdBg|fBc^A|HB3
 c    |d>edf |gf````````ed |dB       B/c/d/B/|A`FFA    |d>edf|gfed|dBc`A|d3
 f    |ec`cA |d/e/f/g/ Haf |eB```````cA      |d3      |]

